workspaces/client/public/images/svg/services-work.svg

<svg width="40" height="40" viewBox="0 0 40 40" fill="none" xmlns="http://www.w3.org/2000/svg">
<path fill-rule="evenodd" clip-rule="evenodd" d="M17.8405 5.86488C16.7233 5.86488 15.7728 6.64125 15.506 7.68766H24.4772C24.2104 6.64125 23.2599 5.86488 22.1427 5.86488H17.8405ZM27.0118 7.68766H30.3134C33.8152 7.68766 36.6666 10.5737 36.6666 14.118C36.6666 14.118 36.5665 15.6184 36.5332 17.7079C36.5299 17.8733 36.4498 18.0353 36.3181 18.1332C35.516 18.7256 34.7823 19.215 34.7156 19.2488C31.9476 21.1053 28.731 22.4116 25.3042 23.0614C25.0808 23.1053 24.8607 22.9888 24.7473 22.7897C23.7868 21.1256 21.9926 20.042 19.9916 20.042C18.0039 20.042 16.193 21.1138 15.2042 22.7796C15.0891 22.9753 14.8724 23.0884 14.6506 23.0462C11.2522 22.3948 8.0356 21.0901 5.28423 19.2657L3.68343 18.1517C3.55003 18.0674 3.46665 17.9155 3.46665 17.7467C3.41663 16.8859 3.33325 14.118 3.33325 14.118C3.33325 10.5737 6.18468 7.68766 9.68643 7.68766H12.9714C13.2882 5.24042 15.3393 3.33325 17.8405 3.33325H22.1427C24.6439 3.33325 26.6949 5.24042 27.0118 7.68766ZM36.0996 21.3586L36.0329 21.3924C32.6646 23.654 28.6126 25.1561 24.3604 25.7806C23.7601 25.865 23.1598 25.4768 22.9931 24.8692C22.6262 23.4852 21.4423 22.5738 20.0249 22.5738H20.0083H19.9749C18.5575 22.5738 17.3736 23.4852 17.0068 24.8692C16.84 25.4768 16.2397 25.865 15.6394 25.7806C11.3873 25.1561 7.33525 23.654 3.9669 21.3924C3.95023 21.3755 3.78348 21.2743 3.65008 21.3586C3.5 21.443 3.5 21.6456 3.5 21.6456L3.61673 30.2531C3.61673 33.7974 6.45148 36.6666 9.95323 36.6666H30.0299C33.5317 36.6666 36.3664 33.7974 36.3664 30.2531L36.4998 21.6456C36.4998 21.6456 36.4998 21.443 36.3498 21.3586C36.2664 21.308 36.1663 21.3249 36.0996 21.3586ZM21.2422 28.4303C21.2422 29.1392 20.6919 29.6962 19.9916 29.6962C19.3079 29.6962 18.741 29.1392 18.741 28.4303V26.2531C18.741 25.5612 19.3079 24.9873 19.9916 24.9873C20.6919 24.9873 21.2422 25.5612 21.2422 26.2531V28.4303Z" fill="white"/>
</svg>

<svg xmlns="http://www.w3.org/2000/svg" width="40" height="40" fill="none"><path fill="#fff" fill-rule="evenodd" d="M17.84 5.865a2.42 2.42 0 0 0-2.334 1.823h8.971a2.42 2.42 0 0 0-2.334-1.823zm9.172 1.823h3.301c3.502 0 6.354 2.886 6.354 6.43 0 0-.1 1.5-.134 3.59a.55.55 0 0 1-.215.425 29 29 0 0 1-1.602 1.116c-2.768 1.856-5.985 3.163-9.412 3.812a.53.53 0 0 1-.557-.271 5.5 5.5 0 0 0-4.755-2.748 5.59 5.59 0 0 0-4.788 2.738.53.53 0 0 1-.553.266c-3.399-.651-6.615-1.956-9.367-3.78l-1.6-1.114a.48.48 0 0 1-.217-.405c-.05-.861-.134-3.629-.134-3.629 0-3.544 2.852-6.43 6.353-6.43h3.285c.317-2.448 2.368-4.355 4.87-4.355h4.302c2.5 0 4.552 1.907 4.869 4.355m9.088 13.67-.067.034c-3.368 2.262-7.42 3.764-11.673 4.389-.6.084-1.2-.304-1.367-.912-.367-1.384-1.55-2.295-2.968-2.295h-.05c-1.418 0-2.601.911-2.968 2.295a1.256 1.256 0 0 1-1.368.912c-4.252-.625-8.304-2.127-11.672-4.389-.017-.017-.184-.118-.317-.033-.15.084-.15.287-.15.287l.117 8.607c0 3.544 2.834 6.414 6.336 6.414H30.03c3.502 0 6.336-2.87 6.336-6.414l.134-8.607s0-.203-.15-.287c-.084-.051-.184-.034-.25 0M21.242 28.43c0 .71-.55 1.266-1.25 1.266-.684 0-1.251-.557-1.251-1.266v-2.177c0-.692.567-1.266 1.25-1.266.7 0 1.251.574 1.251 1.266z" clip-rule="evenodd"/></svg>
